X:1
T:He Knocks Today
T:He Knocks Today
T:Walter Stillman Martin
T:Mrs. E. M. Meader, 1898
T:Public Domain Courtesy of the Cyber Hymnal™
T:Public Domain Courtesy of the Cyber Hymnal™
C:Walter Stillman Martin
Z:Public Domain
Z:Courtesy of the Cyber Hymnal™
%%score ( 1 2 ) ( 3 4 )
L:1/8
Q:1/4=87
M:6/8
K:C
V:1 treble 
V:2 treble 
V:3 bass 
V:4 bass 
V:1
 [EG] | [Ec][Ec][Ec] [Ec][GB][FA] | [EG][CE][FA] [EG]2 [EG] | [EG][FA][EG] [DF][EG][DF] | %4
w: 1.~The|Sav- ior is call- ing you,|list to His voice, He|knocks at your heart’s door to-|
w: 2.~He|plead- eth so pa- tient- ly,|“O- pen to Me,” And|yet you will bid Him de-|
w: 3.~The|time is fast pass- ing, the|end draw- eth nigh, Then|haste thee and o- pen the|
 [CE]3- [CE]2 [EG] | [FA][FA][FA] [FA][FB][Fc] | [Ec][EG][EG] [EG]2 [EG] | %7
w: day; * O|will you not hast- en to|make Him your choice, For|
w: part; * How|worn with His foot- steps the|path- way must be, Be-|
w: door; * The|An- gel of Death, as he|swift pass- eth by, Will|
 [Ec][Ec][Ec] [^Fe][Fd][FA] | [Gd]3- [Gd]2 ||"^Refrain" [FG] | [Ge]3 [Ec]2 [CE] | [FA]3 [EG]2 z | %12
w: how do you dare to de-|lay? *|He’s|knock- ing, He’s|knock- ing,|
w: fore the closed door of your|heart. *||||
w: close it, to o- pen no|more. *||||
 [EG][DF]>[^CE] [DF]3 | [FA][EG]>[^D^F] [EG]2 [EG] | [Ge]3 [Ec]2 [CE] | [FA]3 [EG]2 z | %16
w: Pa- tient- ly now,|with anx- ious brow He’s|knock- ing, He’s|knock- ing,|
w: ||||
w: ||||
 [Ec][Ec][Ec] [Ec]!fermata![Fd][DB] | c3- [Ec]2 |] %18
w: O- pen and let Him come|in. *|
w: ||
w: ||
V:2
 x | x6 | x6 | x6 | x6 | x6 | x6 | x6 | x5 || x | x6 | x6 | x6 | x6 | x6 | x6 | x6 | EFF x2 |] %18
V:3
 [C,C] | [C,G,][C,G,][C,G,] [C,G,][C,C][C,C] | [C,C][C,G,][C,C] [C,C]2 [C,C] | %3
w: ~|~ ~ ~ ~ ~ ~|~ ~ ~ ~ ~|
 [G,C][G,C][G,C] [G,B,][G,B,][G,B,] | [C,G,]3- [C,G,]2 [C,C] | [F,C][F,C][F,C] [F,C][F,G,][F,A,] | %6
w: ~ ~ ~ ~ ~ ~|~ * ~|~ ~ ~ ~ ~ ~|
 [C,G,][C,C][C,C] [C,C]2 [C,C] | [A,C][A,C][A,C] [D,C][D,C][D,C] | [G,B,]3- [G,B,]2 || [G,B,] | %10
w: ~ ~ ~ ~ ~|~ ~ ~ ~ ~ ~|~ *|He’s|
 [C,C][C,C][C,C] [C,G,]2 z | [C,C][C,C][C,C] [C,C]2 z | [G,B,][G,B,]>[G,B,] [G,B,]3 | %13
w: knock- ing just now,|knock- ing just now;|~ ~ ~ ~|
 [C,C][C,C]>[C,C] [C,C]2 [C,C] | [C,C][C,C][C,C] [C,G,]2 z | [C,C][C,C][C,C] [C,C]2 z | %16
w: ~ ~ ~ ~ ~|knock- ing just now|knock- ing just now,|
 G,G,G, G,!fermata![G,-B,][G,D] | G,A,A, [C,G,]2 |] %18
w: ~ ~ ~ ~ and *|let Him come in.|
V:4
 x | x6 | x6 | x6 | x6 | x6 | x6 | x6 | x5 || x | x6 | x6 | x6 | x6 | x6 | x6 | G,G,G, G, x2 | %17
 C,3- x2 |] %18

